X:1
T:Nightingale. Instr:Lute
C:Achazia Songweaver.
c:2008
N:Lute
Q:1/4=90
V:1
M:4/4
L:1/8
K:C
z8 |A,E AE A,E AE |A,E AE A,E AE |[cGA,]E A[AEd] A,E [eA]E |[BdC]G c[Gec] CG c[Ge] |[Df]A e[Af] [Dd]A c[Ad] |[cA,G]E AE A,[cE] [Ac]E |[A,Gc]E A[dEA] A,E AE |[dCB]G c[ecG] CG [ec]G |[Df]A e[fA] [Dd]A c[Ad] |
A,E [cA][EG] A,E AE |[A,Gc]E A[AdE] A,E [Ae]E |[G,dB]D G[DdB] G,D GD |[Df]A d[Af] [Dd]A c[Ae] |[Cce]G cG [_B,_Bd]F [Be][d/F]d/ |[A,Ac]E AE [G,GB][cD] [BG][FAD] |F,C FC [F,AF][CGB] [FAc][CAc] |G,[DBd] GD [G,Ac]D [GB][DBd] |
A,[Ece] [Ace]E A,E AE |[A,Bd]E [Ace]E A,E AE |[F,FA]C FC [F,FA][CGB] [FAc][CAc] |G,[Dd] [Gd]D [G,d]D [Gc][DAc] |A,E AE A,E AE |[A,Ac]E [ABd]E [A,ce]E [Adg]E |[F,fa]C FC [F,a][Cg] [Fe][Ce] |G,[Dd] [GBd]D [G,Bd]D GD |
[A,Ac]E A[EGB] A,E AE |[A,Ac]E A[EGB] A,E AE |[F,FA]C F3/2C/ [F,FA][CGB] [FAc][CAc] |[G,D][Bd] [GBd]G [GAc][GBd] G[GBd] |A,[Ece] [E2A2c2e2] A,E AE |[A,da]E A[Ecg] A,E [Ae]E |A,E AE A,E AE |A,E AE A,E AE |
[A,Gc]E A[EAd] A,E [Ae]E |[CBd]G c[Gce] CG c[Ge] |[Df]A e[Af] [Dd]A c[Ad] |[A,Gc]E AE A,[Ec] [Ac]E |[A,Gc]E A[EAd] A,E AE |[CBd]G c[Gce] CG [ce]G |[Df]A e[Af] [Dd]A c[Ad] |A,E [cA][EG] A,E AE |[A,Gc]E A[EAd] A,E [Ae]E |
[G,Bd]D G[DBd] G,D GD |[Df]A d[Af] [Dd]A c[Ae] |[Cce]G cG [_B,_Bd]F [Be][d/F]d/ |[A,Ac]E AE [G,GB][Dc] [GB][DFA] |F,C FC [F,FA][CGB] [FAc][CAc] |G,[DBd] GD [G,Ac]D [GB][DBd] |A,[Ece] [Ace]E A,E AE |[A,Bd]E [Ace]E A,E AE |
[F,FA]C FC [F,FA][CGB] [FAc][CAc] |G,[Dd] [Gd]D [G,d]D [Gc][DAc] |A,E AE A,E AE |[A,Ac]E [ABd]E [A,ce]E [Adg]E |[F,fa]C FC [F,a][Cg] [Fe][Ce] |G,[Dd] [GBd]D [G,Bd]D GD |[A,Ac]E A[EGB] A,E AE |[A,Ac]E A[EGB] A,E AE |
[F,FA]C F3/2C/ [F,FA][CGB] [FAc][CAc] |[G,D][Bd] [GBd]G [GAc][GBd] G[GBd] |A,[Ece] [E2A2c2e2] A,E AE |[A,da]E A[Ecg] A,E [Ae]E |[G2d2] [F2c2] z3 [DA] |[C2G2] z4 [A,2E2-] |[AE4] B4 z2 c |]
